app/client/src/assets/icons/blueprintjs/20px/trending-down.svg

<svg xmlns="http://www.w3.org/2000/svg" xml:space="preserve" viewBox="0 0 20 20"><path fill-rule="evenodd" d="M19 10c-.55 0-1 .45-1 1v1.37l-6.25-7.03-.01.01A.971.971 0 0 0 11 5c-.23 0-.42.09-.59.21l-.01-.01-3.43 2.58-5.42-3.61-.01.01A.969.969 0 0 0 1 4c-.55 0-1 .45-1 1 0 .35.19.64.46.82l-.01.01 6 4 .01-.02c.15.11.33.19.54.19.23 0 .42-.09.59-.21l.01.01 3.26-2.45L16.77 14H15c-.55 0-1 .45-1 1s.45 1 1 1h4c.55 0 1-.45 1-1v-4c0-.55-.45-1-1-1z" clip-rule="evenodd"/></svg>

<?xml version="1.0" encoding="utf-8"?>
<!-- Generator: Adobe Illustrator 18.0.0, SVG Export Plug-In . SVG Version: 6.00 Build 0)  -->
<svg version="1.1" id="Layer_1" xmlns="http://www.w3.org/2000/svg" xmlns:xlink="http://www.w3.org/1999/xlink" x="0px" y="0px"
	 viewBox="0 0 20 20" enable-background="new 0 0 20 20" xml:space="preserve">
<g id="trending_down_1_">
	<g>
		<path fill-rule="evenodd" clip-rule="evenodd" d="M19,10c-0.55,0-1,0.45-1,1v1.37l-6.25-7.03l-0.01,0.01C11.56,5.14,11.3,5,11,5
			c-0.23,0-0.42,0.09-0.59,0.21L10.4,5.2L6.97,7.78L1.55,4.17L1.54,4.18C1.39,4.08,1.21,4,1,4C0.45,4,0,4.45,0,5
			c0,0.35,0.19,0.64,0.46,0.82L0.45,5.83l6,4l0.01-0.02C6.61,9.92,6.79,10,7,10c0.23,0,0.42-0.09,0.59-0.21L7.6,9.8l3.26-2.45
			L16.77,14H15c-0.55,0-1,0.45-1,1c0,0.55,0.45,1,1,1h4c0.55,0,1-0.45,1-1v-4C20,10.45,19.55,10,19,10z"/>
	</g>
</g>
</svg>
